icons/Symfony-Light.svg

<svg width="256" height="256" viewBox="0 0 256 256" fill="none" xmlns="http://www.w3.org/2000/svg">
<rect width="256" height="256" rx="60" fill="#F4F2ED"/>
<path d="M128 228C183.228 228 228 183.228 228 128C228 72.7715 183.228 28 128 28C72.7715 28 28 72.7715 28 128C28 183.228 72.7715 228 128 228Z" fill="#1A171B"/>
<path d="M171.719 65.0018C161.56 65.3561 152.692 70.9547 146.093 78.7008C138.784 87.1925 133.922 97.2649 130.419 107.547C124.151 102.411 119.317 95.7613 109.263 92.8619C101.492 90.6311 93.3302 91.5524 85.8245 97.1448C82.2688 99.8007 79.8192 103.816 78.6545 107.59C75.638 117.397 81.8251 126.126 84.6351 129.26L90.779 135.844C92.0454 137.136 95.0958 140.503 93.6045 145.331C91.993 150.582 85.6642 153.98 79.1722 151.978C76.2728 151.093 72.107 148.933 73.0406 145.892C73.4257 144.647 74.3162 143.717 74.7938 142.642C75.2313 141.717 75.4408 141.024 75.5733 140.617C76.7596 136.744 75.1389 131.706 70.9916 130.428C67.1216 129.242 63.1623 130.181 61.6279 135.164C59.887 140.824 62.5954 151.096 77.1047 155.57C94.1036 160.793 108.484 151.537 110.523 139.465C111.808 131.904 108.394 126.287 102.139 119.061L97.0431 113.426C93.9557 110.341 92.8958 105.085 96.091 101.046C98.787 97.6378 102.626 96.1834 108.915 97.8935C118.094 100.386 122.186 106.755 129.013 111.891C126.194 121.138 124.352 130.419 122.685 138.741L121.668 144.946C116.787 170.545 113.062 184.601 103.381 192.671C101.431 194.057 98.6422 196.134 94.4395 196.279C92.2364 196.347 91.5247 194.831 91.4938 194.171C91.4415 192.625 92.7448 191.916 93.6106 191.22C94.9047 190.514 96.8613 189.343 96.7288 185.593C96.587 181.163 92.9174 177.32 87.6115 177.496C83.6368 177.632 77.5792 181.372 77.8072 188.219C78.0445 195.29 84.6351 200.59 94.572 200.254C99.8839 200.072 111.747 197.909 123.437 184.013C137.043 168.083 140.848 149.821 143.711 136.455L146.906 118.809C148.681 119.021 150.579 119.163 152.643 119.212C169.59 119.57 178.066 110.791 178.192 104.407C178.276 100.543 175.657 96.7411 171.99 96.8274C169.365 96.9014 166.068 98.6484 165.276 102.278C164.503 105.84 170.668 109.054 165.849 112.175C162.426 114.39 156.288 115.952 147.645 114.683L149.217 105.997C152.424 89.525 156.381 69.2631 171.389 68.7701C172.483 68.7146 176.485 68.8194 176.578 71.4661C176.606 72.3504 176.387 72.5754 175.351 74.5997C174.298 76.1773 173.9 77.5207 173.95 79.0643C174.094 83.2702 177.293 86.034 181.917 85.8676C188.111 85.6673 189.892 79.6374 189.79 76.5409C189.54 69.2662 181.871 64.669 171.719 65.0018V65.0018Z" fill="#F4F2ED"/>
</svg>

<svg xmlns="http://www.w3.org/2000/svg" width="256" height="256" fill="none" viewBox="0 0 256 256"><rect width="256" height="256" fill="#F4F2ED" rx="60"/><path fill="#1A171B" d="M128 228c55.23 0 100-44.77 100-100S183.23 28 128 28 28 72.77 28 128s44.77 100 100 100"/><path fill="#F4F2ED" d="M171.72 65c-10.16.36-19.03 5.95-25.63 13.7-7.3 8.5-12.17 18.56-15.67 28.85-6.27-5.14-11.1-11.79-21.16-14.69a25.9 25.9 0 0 0-23.44 4.28c-3.55 2.66-6 6.68-7.17 10.45-3.01 9.8 3.18 18.54 5.99 21.67l6.14 6.58c1.27 1.3 4.32 4.66 2.82 9.5-1.6 5.24-7.94 8.64-14.43 6.64-2.9-.89-7.06-3.05-6.13-6.09.39-1.24 1.28-2.17 1.75-3.25.44-.92.65-1.62.78-2.02 1.19-3.88-.43-8.91-4.58-10.2-3.87-1.18-7.83-.24-9.36 4.74-1.74 5.66.97 15.94 15.47 20.41 17 5.22 31.38-4.03 33.42-16.1 1.29-7.57-2.13-13.18-8.38-20.4l-5.1-5.64c-3.08-3.09-4.14-8.35-.95-12.38 2.7-3.41 6.54-4.87 12.83-3.16 9.17 2.5 13.27 8.86 20.1 14-2.83 9.25-4.67 18.53-6.34 26.85l-1.01 6.2c-4.88 25.6-8.6 39.66-18.29 47.73-1.95 1.39-4.74 3.46-8.94 3.6-2.2.08-2.92-1.44-2.95-2.1-.05-1.54 1.25-2.25 2.12-2.95 1.3-.7 3.25-1.88 3.12-5.63-.14-4.43-3.81-8.27-9.12-8.1-3.97.14-10.03 3.88-9.8 10.73.23 7.07 6.83 12.37 16.76 12.03 5.31-.18 17.18-2.34 28.87-16.24 13.6-15.93 17.4-34.19 20.27-47.55l3.2-17.65q2.65.32 5.73.4c16.95.36 25.43-8.42 25.55-14.8.09-3.87-2.53-7.67-6.2-7.58-2.62.07-5.92 1.82-6.71 5.45-.78 3.56 5.39 6.77.57 9.9-3.42 2.21-9.56 3.77-18.2 2.5l1.57-8.68c3.2-16.47 7.16-36.74 22.17-37.23 1.1-.06 5.1.05 5.19 2.7.03.88-.2 1.1-1.23 3.13a7.2 7.2 0 0 0-1.4 4.46c.14 4.21 3.34 6.97 7.97 6.8 6.2-.2 7.97-6.22 7.87-9.32-.25-7.27-7.92-11.87-18.07-11.54"/></svg>
